X:3
T:Baker's Favorite
R:reel
C: Larry Unger
B:Reckless Reel
Z: transcribed by Mary Lou Knack 22-Aug-1998
M:C
Q:1/2=120
K:Em
"Em"E2EF GFGA| BABd e2ef| gfed edBA| "D"ABdB AGFD|
"Em"E2EF GFGA| BABd e2ef| g2f2 e(dd)(B| "D"B)ABd "Em"e2z2 :|
\
|: "Em"Bde2 e2e(g| g)e f2e3(b| "A"b)eae gee(d| d)eef edBd|
   "Em"Bde2 e2ef| gef2e3(b| "A"b)eae geed| "Bm"edBd "Em"e2z2 :|
